X: 245
T: A Like For All But Love For None
R: slip jig
M: 9/8
K: Dmajor
D2D FDF A (3Bcd|f2a fed edc|~B3 ABd A2F|~G2F GFG ABd|
~A2 A ~G3 F (3Bcd|f2a fed efa|g2e fed dcA|~B3 AGF FDA:|
f2d edc d2e|fga fed efa|g2e fed dcA|B2B AGF A (3Bcd|
ABA ~G3 F (3Bcd|fga fed efa|g2e fed dcA|~B3 AGF A (3Bcd:|

